X: 15
T: Paddy O'Rafferty
R: jig
M: 6/8
L: 1/8
K: Gmaj
dBB dAA | dBB AGA | dBB A2D | GBA GED |
d2B ADD | GAB cde | dBG AGE | GAG GED :|
B3 ~A3 | B2G AGE | BGG AGE | GAG GED |
BDD ~A3 | GAB cde | dBG AGE | GAG GED |
GBD GBD | GBd edc | BdG BdB | GAG GED |
GBD GBD | GBd ~g3 | edB A2B | GBA GED |
|: B2d gdd | edd gdd | Bdd edB | GAG GED |
B2d gdd | ede gfg | edB ~A3 | GBA GED :|


Tune 741	Setting 25048

